X: 1
T: Jenny Nettles
M: 4/4
L: 1/8
R: reel
K: Ador
AB|:c2B2A2a2|efge dBGB|c2B2A2a2|gefd e2 AB|
c2B2A2a2|efge dBGB|c2B2A2a2|gefd e2 AB:|
|:cdeA cdeA|d/c/B/A/ Gd BGdB|cdeA cdea|gefd e2 AB|
cdef gage|gage d/c/B/A/ GB|cdef gagf|eaa^g a2 AB:|
